X: 4340
T: ON YONDER ROCK. (Fra Diavolo.)
%R: air, waltz, jig
B: James Kerr "Merry Melodies" v.4 p.36 #340
Z: 2016 John Chambers <jc:trillian.mit.edu>
M: 6/8
L: 1/8
K: G
!p!D |\
G2F G2B | d3- d2B | d2B d2B | d^c=c A3 |\
A2A AGA | B2d G3 | ABA D2d |[1 G3- G2 :|[1 G3- G2z ||
|:!f!\
g6 | d6 | _BBB BAG | d3- d(^c=c) |\
A2A AGA | B2d G3 | ABA D2d |[1 G3- G2z :|[2 G3- G2 |]

%%sep 1 1 500
%%sep 1 1 500

